X:1
T:J. S. Bach - Partita No.1 - B flat major - Menuet 1 - BWV 825
%%score { 1 2 }
L:1/8
M:3/4
K:Bb
V:1 treble nm="Piano"
V:2 bass nm="Piano" snm="Pno."
V:1
 dB AB FB | dB eB fB | cA GA FA | cF dF eF | d_A eG fF | gf ae bd | ce dc dB | cA GA Fe | %8
 dB AB FB | dB eB fB | cA GA FA | cF dF eF | dc =eB fA | GB FB =EB | Ac AF C=E |1 %15
 F2 G/A/B/A/ B/c/ z :|2 F4 z2 |: af =ef cf | af bf af | ge de ce | fd fc f=B | ce ^fc ac | %22
 Ac ^Fc Dc | Be dB cA | G2 A/B/A/G/ F/E/ z | DB AB fB | _aB gB fB | EB AB gB | EB FB GB | %29
 cB d_A eG | fe gd =ac | ba gf ed | cB AG FE | z e fe _Be | =Bf Af Gf | z e fe _Be | Ae Ge Fe | %37
 df dB FA |1 B z B/c/d/=e/ f/=e/f/g/ :|2 B4 z2 |] %40
V:2
 B,2 F,2 D,2 | B,,2 C,2 D,2 | A,,2 C,2 F,2 | A,2 B,A, G,F, | B,2 C2 D2 | E2 F2 G2 | A2 B2 B,2 | %7
 [FF]2 F,2 A,2 | B,2 F,2 D,2 | B,,2 C,2 D,2 | A,,2 C,2 F,2 | A,2 B,A, G,F, | B,2 C2 D2 | %13
 =E,2 D,2 C,2 | F,2 B,,2 C,2 |1 F,,A,, C,F, G,A, :|2 F,2 C,2 A,,2 |: F,,2 C,2 F,2 | E,2 D,2 B,,2 | %19
 E,2 G,2 _A,2 | D,2 G,2 G,,2 | C,2 =A,2 G,2 | ^F,2 D,2 ^F,2 | G,2 B,,2 D,2 | G,,A,, B,,C, D,E, | %25
 F,2 E,2 D,2 | F,2 E,2 D,2 | G,2 F,2 E,2 | G,2 F,2 E,2 | _A,2 B,2 C2 | D2 E2 F2 | G2 A2 B2 | %32
 F2 F,2 A,2 | D2 D,2 F,2 | [G,D]2 A,2 =B,2 | C2 C,2 E,2 | [F,C]2 G,2 A,2 | B,2 E,2 F,2 |1 %38
 B,,D, C,B,, A,,G,, :|2 B,,4 z2 |] %40

